symbols/web/person/materialsymbolsrounded/person_wght600gradN25fill1_40px.svg

<svg xmlns="http://www.w3.org/2000/svg" height="40" width="40"><path d="M20 19.667q-3 0-4.958-1.959-1.959-1.958-1.959-4.958t1.959-4.958Q17 5.833 20 5.833t4.958 1.959q1.959 1.958 1.959 4.958t-1.959 4.958Q23 19.667 20 19.667ZM9.792 33.958q-1.5 0-2.521-1.02-1.021-1.021-1.021-2.521V29.25q0-1.667.854-2.938.854-1.27 2.229-1.937 2.75-1.25 5.375-1.896 2.625-.646 5.292-.646 2.708 0 5.312.646 2.605.646 5.313 1.896 1.417.625 2.271 1.896.854 1.271.854 2.979v1.208q0 1.459-1.021 2.48-1.021 1.02-2.521 1.02Z"/></svg>

<svg xmlns="http://www.w3.org/2000/svg" height="40" width="40"><path d="M20 19.667Q17 19.667 15.042 17.708Q13.083 15.75 13.083 12.75Q13.083 9.75 15.042 7.792Q17 5.833 20 5.833Q23 5.833 24.958 7.792Q26.917 9.75 26.917 12.75Q26.917 15.75 24.958 17.708Q23 19.667 20 19.667ZM6.25 33.958V29.25Q6.25 27.583 7.104 26.312Q7.958 25.042 9.333 24.375Q12.083 23.125 14.708 22.479Q17.333 21.833 20 21.833Q22.708 21.833 25.312 22.479Q27.917 23.125 30.625 24.375Q32.042 25 32.896 26.292Q33.75 27.583 33.75 29.25V33.958Z"/></svg>
